!! 00010] TT[TB
!! Eigene Aufnahme
!!!OTL: Qing en Joking mind
!!!ARE: Neimeng
!! Ethnic Group: Menggu
!! MM, S. 1304
!!!SCT: C0574
!!!YEM: Copyright 1995, estate of Helmut Schaffrath.
**kern
*ICvox
*Ivox
*M2/4
*k[]
*C:
{4g
8cc
8a
=1
8cc
8ee
4dd
=2
4g
8cc
8a
=3
4g
4g}
=4
{8cc
8dd
4g
=5
8dd
8gg
4cc
=6
8a
16g
16g
8e
8d
=7
8.g
16a
4g}
=8
{8e
4g
8a
=9
8cc
8dd
4ee
=10
4e
8g
8e
=11
4d
4d}
=12
{8g
8a
8d
8e
=13
8g
8a
8dd
8cc
=14
8a
4cc
8dd
=15
2cc}
==
!!!AGN: NN
!! Saenger: Chao Lun Batou, der das Buch nur zum Nachschlagen
!!    benutzte und ansonsten auswendig sang. Da er aus dem Osten der
!!    Neimeng kommt, kennt er nicht so viele Lieder des Westens.
!!    Alle Lieder wurden mit erkaelteter, halber Stimme in meinem
!!    Zimmer gesungen. FOTO VORHANDEN (DIAS)  31.3.87 VARIANTE
!!!ONB: ESAC (Essen Associative Code) Database: CHINA
!!!AMT: simple duple
!!!AIN: vox
!!!EED: Helmut Schaffrath
!!!EEV: 1.0
*-
